src/assets/selectIconsSpells/fuoco_2.svg

<svg xmlns="http://www.w3.org/2000/svg" viewBox="0 0 512 512"><path d="M0 0h512v512H0z"/><path fill="#fff" d="M366.9 36.88c-49.5 6.81-66 65.52-55.2 104.52 13.8 49.7-46.5 54.2-33.3-24.7-17.5 28.4-22.4 53.7-18.6 74.9 3.7 21.3 14.7 37.7 29.8 49.6 9.5 7.5 20.6 13.3 32.5 17 27.2-25.1 31.2-69.5 18.2-98.4 19.3 12.1 30.3 35.4 28.9 62.5 11.9.7 27.2-6.8 36.4-17.8.4 19 2.3 34.7-8.9 52.4 28.5-10.9 64.3-36.2 65.7-51.2 1.4-15.7-1.5-34.2-8.3-55.7-17.1 66.8-77.4 39.6-42.6-45.4-61.7 53.6-69.5-11.1-44.6-67.72zm116.8 2.09c-8 13.23-16 34.87-45.9 32.25 20.5 22.17 20.4 33.78 11.8 63.88 37.2-31.9 37.8-67.34 34.1-96.13zM205.4 75.8c-28.1-.1-49.9 56.5-57.7 90.6-11.3 49.2-14.6 83.5-.9 133l-17.3 4.8c-15.5-55.9-8.3-94.7 2.3-142.3 10.5-47.6 14.5-70.4-4.5-74.1-42.1-8.4-45.3 90.4-47.8 134.8-1.4 25.8.8 57 6.6 77.6l-16.9 6.2c-14.4-53.4-6.7-98-1.7-150.8 2.5-15.6-1.8-25.7-19.1-25.2-15.8.5-27 143.4-13.3 179.1 8.7 53 31.3 130.5 11 152.7L18 494h206l20-28.6c23-5 28.4-19.9 37-33.8 25.3-40.9 82.4-83.1 129.1-99.2 21.1-7.5-21.9-48.6-53.8-32.8-55 27.2-81.7 56.3-117.8 38.3-55.9-27.8-47.3-100.6-35.9-162.8 6.2-33.6 40.4-89.6 7.2-98.8-1.4-.32-2.9-.49-4.4-.5z"/></svg>

<?xml version="1.0" encoding="UTF-8" standalone="no"?>
<!DOCTYPE svg PUBLIC "-//W3C//DTD SVG 1.1//EN" "http://www.w3.org/Graphics/SVG/1.1/DTD/svg11.dtd">
<svg width="100%" height="100%" viewBox="0 0 512 512" version="1.1" xmlns="http://www.w3.org/2000/svg" xmlns:xlink="http://www.w3.org/1999/xlink" xml:space="preserve" xmlns:serif="http://www.serif.com/" style="fill-rule:evenodd;clip-rule:evenodd;stroke-linejoin:round;stroke-miterlimit:2;">
    <rect x="0" y="0" width="512" height="512" style="fill-rule:nonzero;"/>
    <path d="M205.4,75.8C177.3,75.7 155.5,132.3 147.7,166.4C136.4,215.6 133.1,249.9 146.8,299.4L129.5,304.2C114,248.3 121.2,209.5 131.8,161.9C142.3,114.3 146.3,91.5 127.3,87.8C85.2,79.4 82,178.2 79.5,222.6C78.1,248.4 80.3,279.6 86.1,300.2L69.2,306.4C54.8,253 62.5,208.4 67.5,155.6C70,140 65.7,129.9 48.4,130.4C32.6,130.9 21.4,273.8 35.1,309.5C43.8,362.5 66.4,440 46.1,462.2L18,494L224,494L244,465.4C267,460.4 272.4,445.5 281,431.6C306.3,390.7 363.4,348.5 410.1,332.4C431.2,324.9 388.2,283.8 356.3,299.6C301.3,326.8 274.6,355.9 238.5,337.9C182.6,310.1 191.2,237.3 202.6,175.1C208.8,141.5 243,85.5 209.8,76.3C208.4,75.98 206.9,75.81 205.4,75.8Z" style="fill:rgb(198,196,196);fill-rule:nonzero;"/>
    <path d="M366.9,36.88C342,93.5 349.8,158.2 411.5,104.6C376.7,189.6 437,216.8 454.1,150C460.9,171.5 463.8,190 462.4,205.7C461,220.7 425.2,246 396.7,256.9C407.9,239.2 406,223.5 405.6,204.5C396.4,215.5 381.1,223 369.2,222.3C370.6,195.2 359.6,171.9 340.3,159.8C353.3,188.7 349.3,233.1 322.1,258.2C310.2,254.5 299.1,248.7 289.6,241.2C274.5,229.3 263.5,212.9 259.8,191.6C256,170.4 260.9,145.1 278.4,116.7C265.2,195.6 325.5,191.1 311.7,141.4C300.9,102.4 317.4,43.69 366.9,36.88ZM483.7,38.97C487.4,67.76 486.8,103.2 449.6,135.1C458.2,105 458.3,93.39 437.8,71.22C467.7,73.84 475.7,52.2 483.7,38.97Z" style="fill:url(#_Linear1);"/>
    <defs>
        <linearGradient id="_Linear1" x1="0" y1="0" x2="1" y2="0" gradientUnits="userSpaceOnUse" gradientTransform="matrix(226.585,0,0,221.32,258.593,147.54)"><stop offset="0" style="stop-color:rgb(194,18,18);stop-opacity:1"/><stop offset="1" style="stop-color:rgb(255,103,0);stop-opacity:1"/></linearGradient>
    </defs>
</svg>
